src/icons/icons_set_01/057-walk.svg

<svg height="50" viewBox="0 0 50 50" width="50" xmlns="http://www.w3.org/2000/svg"><path d="m10.8225403 14.160237-.7970214 9.514443 8.8968751 13.4227433c.3051257.4603442.1792963 1.0808801-.2810478 1.3860059-.4603441.3051257-1.0808801.1792963-1.3860058-.2810478l-9.08886721-13.7124024c-.12434753-.1876035-.18177126-.4116699-.16298287-.6359563l.91141006-10.8799576-4.91490038 3.487816v6.4756189c0 .5522847-.44771525 1-1 1s-1-.4477153-1-1v-6.9921875c0-.324039.15701201-.6279908.42127261-.8155211l6.96875-4.9453125c.46411067-.32935204 1.10913019-.20552951 1.41829509.272266l4.1732529 6.4495088 6.3571285 3.1343371c.4953493.2442284.6989229.8437746.4546945 1.3391239-.2442285.4953493-.8437747.698923-1.3391239.4546945l-6.6045931-3.2563476c-.1619507-.0798487-.2992599-.2020573-.3973529-.3536542zm5.1774597-10.66041871c0 1.93271377-1.5673866 3.50018171-3.5 3.50018171-1.93225 0-3.5-1.56746794-3.5-3.50018171 0-1.93235035 1.56775-3.49981829 3.5-3.49981829 1.9326134 0 3.5 1.56746794 3.5 3.49981829zm-10.25874043 25.17254371-.0730803.1089683-.04249624.1241326zm.68373986-2.101722c.1788802-.5225135.74747211-.8010833 1.26998557-.6222031.52251347.1788802.80108327.7474721.62220307 1.2699856l-.79931641 2.3348229c-.02820994.0824019-.06706423.1607653-.11557654.2331009l-5.01855469 7.4830482c-.30761825.4586823-.92882759.5811439-1.38750989.2735256-.45868231-.3076182-.58114391-.9288276-.27352566-1.3875099l4.94547439-7.3740799z" fill="#1d1d1b" fill-rule="evenodd" transform="translate(15 6)"/></svg>

<?xml version="1.0" encoding="UTF-8"?>
<svg width="50px" height="50px" viewBox="0 0 50 50" version="1.1" xmlns="http://www.w3.org/2000/svg" xmlns:xlink="http://www.w3.org/1999/xlink">
    <!-- Generator: Sketch 52.6 (67491) - http://www.bohemiancoding.com/sketch -->
    <title>057-walk</title>
    <desc>Created with Sketch.</desc>
    <g id="057-walk" stroke="none" stroke-width="1" fill="none" fill-rule="evenodd">
        <g id="Group-7" transform="translate(15.000000, 6.000000)" fill="#1D1D1B">
            <path d="M10.8225403,14.160237 L10.0255189,23.67468 L18.922394,37.0974233 C19.2275197,37.5577675 19.1016903,38.1783034 18.6413462,38.4834292 C18.1810021,38.7885549 17.5604661,38.6627255 17.2553404,38.2023814 L8.16647319,24.489979 C8.04212566,24.3023755 7.98470193,24.0783091 8.00349032,23.8540227 L8.91490038,12.9740651 L4,16.4618811 L4,22.9375 C4,23.4897847 3.55228475,23.9375 3,23.9375 C2.44771525,23.9375 2,23.4897847 2,22.9375 L2,15.9453125 C2,15.6212735 2.15701201,15.3173217 2.42127261,15.1297914 L9.39002261,10.1844789 C9.85413328,9.85512686 10.4991528,9.97894939 10.8083177,10.4567449 L14.9815706,16.9062537 L21.3386991,20.0405908 C21.8340484,20.2848192 22.037622,20.8843654 21.7933936,21.3797147 C21.5491651,21.875064 20.9496189,22.0786377 20.4542697,21.8344092 L13.8496766,18.5780616 C13.6877259,18.4982129 13.5504167,18.3760043 13.4523237,18.2244074 L10.8225403,14.160237 Z M16,3.49981829 C16,5.43253206 14.4326134,7 12.5,7 C10.56775,7 9,5.43253206 9,3.49981829 C9,1.56746794 10.56775,0 12.5,0 C14.4326134,0 16,1.56746794 16,3.49981829 Z M5.74125957,28.672362 L5.66817927,28.7813303 L5.62568303,28.9054629 L5.74125957,28.672362 Z M6.42499943,26.57064 C6.60387963,26.0481265 7.17247154,25.7695567 7.694985,25.9484369 C8.21749847,26.1273171 8.49606827,26.695909 8.31718807,27.2184225 L7.51787166,29.5532454 C7.48966172,29.6356473 7.45080743,29.7140107 7.40229512,29.7863463 L2.38374043,37.2693945 C2.07612218,37.7280768 1.45491284,37.8505384 0.996230536,37.5429201 C0.537548234,37.2353019 0.415086625,36.6140925 0.722704879,36.1554102 L5.66817927,28.7813303 L6.42499943,26.57064 Z" id="Combined-Shape"></path>
        </g>
    </g>
</svg>
